public/logos/BR.svg

<?xml version="1.0" encoding="UTF-8"?>
<svg xmlns="http://www.w3.org/2000/svg" xmlns:xlink="http://www.w3.org/1999/xlink" width="176pt" height="39.83pt" viewBox="0 0 176 39.83" version="1.1">
<defs>
<clipPath id="clip1">
  <path d="M 0 25 L 115 25 L 115 39.828125 L 0 39.828125 Z M 0 25 "/>
</clipPath>
<clipPath id="clip2">
  <path d="M 159 0 L 176 0 L 176 39.828125 L 159 39.828125 Z M 159 0 "/>
</clipPath>
<clipPath id="clip3">
  <path d="M 121 0 L 172 0 L 172 39.828125 L 121 39.828125 Z M 121 0 "/>
</clipPath>
</defs>
<g id="surface1">
<g clip-path="url(#clip1)" clip-rule="nonzero">
<path style=" stroke:none;fill-rule:evenodd;fill:rgb(17.144775%,63.546753%,27.272034%);fill-opacity:1;" d="M 101.9375 39.726562 L 95.855469 39.726562 L 95.855469 25.101562 L 107.675781 25.101562 C 109.027344 25.097656 110.261719 25.355469 111.414062 25.878906 C 112.707031 26.449219 113.546875 27.390625 113.753906 28.5 C 114.023438 29.78125 113.492188 31.042969 112.289062 31.980469 C 111.734375 32.417969 111.074219 32.707031 110.289062 32.847656 C 111.660156 33.089844 112.714844 33.886719 113.023438 34.910156 C 113.132812 35.277344 113.199219 35.613281 113.238281 35.988281 C 113.347656 37.007812 113.453125 37.9375 113.585938 38.957031 C 113.621094 39.25 113.773438 39.507812 114.039062 39.726562 L 107.941406 39.726562 C 107.671875 39.414062 107.519531 39.085938 107.46875 38.71875 C 107.324219 37.785156 107.21875 36.933594 107.121094 35.996094 C 107.082031 35.617188 106.867188 35.285156 106.496094 35.023438 C 106.128906 34.761719 105.664062 34.625 105.15625 34.617188 L 101.9375 34.613281 Z M 101.972656 31.257812 L 105.789062 31.257812 C 106.320312 31.257812 106.804688 31.097656 107.160156 30.804688 C 107.519531 30.511719 107.691406 30.136719 107.648438 29.742188 C 107.605469 29.386719 107.402344 29.074219 107.050781 28.832031 C 106.695312 28.59375 106.257812 28.46875 105.78125 28.46875 L 101.972656 28.46875 Z M 86.394531 39.726562 L 86.394531 25.101562 L 92.617188 25.101562 L 92.617188 39.726562 Z M 61.628906 39.726562 L 68.277344 25.101562 L 75.890625 25.101562 L 82.335938 39.726562 L 75.820312 39.726562 L 75.035156 37.65625 L 68.941406 37.65625 L 68.136719 39.726562 Z M 70.183594 34.390625 L 73.847656 34.390625 L 72.042969 29.605469 Z M 36.136719 39.726562 L 42.785156 25.101562 L 50.398438 25.101562 L 56.839844 39.726562 L 50.328125 39.726562 L 49.542969 37.65625 L 43.449219 37.65625 L 42.640625 39.726562 Z M 44.691406 34.390625 L 48.355469 34.390625 L 46.550781 29.605469 Z M 25.09375 39.726562 L 19.09375 25.101562 L 25.484375 25.101562 L 28.683594 33.925781 L 32.050781 25.101562 L 38.484375 25.101562 L 32.242188 39.726562 Z M 0 39.726562 L 0 25.101562 L 16.738281 25.101562 L 16.738281 28.910156 L 6.105469 28.910156 L 6.105469 30.363281 L 16.769531 30.363281 L 16.769531 34.046875 L 6.117188 34.046875 L 6.117188 35.898438 L 16.734375 35.898438 L 16.734375 39.726562 L 0 39.726562 "/>
</g>
<g clip-path="url(#clip2)" clip-rule="nonzero">
<path style=" stroke:none;fill-rule:evenodd;fill:rgb(92.448425%,31.391907%,15.377808%);fill-opacity:1;" d="M 173.375 0.0820312 L 176 0.0820312 L 162.164062 39.828125 L 159.316406 39.828125 C 163.699219 26.011719 168.09375 13.582031 173.375 0.0820312 "/>
</g>
<path style=" stroke:none;fill-rule:evenodd;fill:rgb(17.144775%,63.546753%,27.272034%);fill-opacity:1;" d="M 147.691406 10.625 L 148.816406 15.519531 L 151.257812 14.03125 L 151.429688 14.15625 L 150.472656 16.78125 L 154.480469 17.609375 L 154.460938 18.125 L 150.488281 18.996094 L 151.851562 21.992188 L 151.460938 22.253906 L 148.777344 20.898438 L 147.691406 26.492188 L 147.453125 26.492188 L 146.335938 20.898438 L 143.777344 22.3125 L 143.472656 21.992188 L 144.816406 19.015625 L 140.453125 18.125 L 140.382812 17.632812 L 144.785156 16.824219 L 143.757812 14.257812 L 143.925781 14.105469 L 146.460938 15.519531 L 147.453125 10.625 L 147.691406 10.625 "/>
<path style=" stroke:none;fill-rule:evenodd;fill:rgb(92.448425%,31.391907%,15.377808%);fill-opacity:1;" d="M 152.042969 17.003906 L 151.671875 16.925781 C 151.609375 15.621094 151.492188 14.433594 151.289062 13.140625 L 148.246094 13.140625 L 148.132812 12.644531 L 151.265625 12.660156 L 151.101562 11.667969 C 150.921875 10.671875 150.699219 9.777344 150.394531 8.816406 L 150.320312 8.59375 L 150.304688 8.550781 L 147.660156 8.550781 L 147.660156 10.601562 L 147.640625 10.511719 L 147.40625 10.511719 L 147.398438 10.558594 L 147.398438 8.480469 L 146.519531 8.488281 L 143.960938 11.699219 C 143.90625 12.007812 143.863281 12.285156 143.816406 12.59375 L 146.980469 12.597656 L 146.875 13.109375 L 143.734375 13.113281 C 143.554688 14.425781 143.453125 15.628906 143.410156 16.953125 L 143.03125 17.023438 C 143.085938 15.65625 143.199219 14.414062 143.398438 13.0625 L 142.984375 13.0625 L 138.898438 18.210938 L 141.269531 18.195312 L 143.359375 18.621094 C 143.363281 19.675781 143.410156 20.632812 143.511719 21.683594 L 143.421875 21.882812 L 143.546875 22.015625 C 143.609375 22.605469 143.679688 23.144531 143.773438 23.730469 L 146.875 23.730469 L 146.972656 24.226562 L 143.796875 24.210938 L 143.960938 25.203125 C 144.140625 26.199219 144.359375 27.09375 144.671875 28.058594 L 144.742188 28.277344 L 144.757812 28.320312 L 147.398438 28.320312 L 147.398438 26.347656 L 147.40625 26.378906 L 147.640625 26.378906 L 147.660156 26.277344 L 147.660156 28.390625 L 150.285156 28.390625 C 150.734375 27.007812 151.035156 25.714844 151.242188 24.277344 L 148.050781 24.273438 L 148.152344 23.761719 L 151.324219 23.761719 C 151.40625 23.179688 151.46875 22.652344 151.519531 22.066406 L 151.800781 21.882812 L 151.574219 21.382812 C 151.640625 20.464844 151.667969 19.628906 151.664062 18.707031 L 151.234375 18.710938 L 153.289062 18.261719 L 154.230469 18.261719 L 156.605469 18.214844 C 156.558594 16.429688 156.292969 14.8125 155.777344 13.101562 L 151.683594 13.132812 C 151.878906 14.457031 151.992188 15.667969 152.042969 17.003906 Z M 157.730469 23.792969 L 159.863281 23.792969 C 160.144531 23.144531 160.359375 22.535156 160.550781 21.847656 C 160.839844 20.777344 160.984375 19.773438 161.015625 18.660156 L 156.894531 18.660156 C 156.867188 20.453125 156.609375 22.082031 156.078125 23.792969 Z M 157.507812 12.578125 L 159.609375 12.582031 C 159.460938 12.269531 159.3125 11.996094 159.136719 11.699219 C 158.519531 10.632812 157.828125 9.738281 156.949219 8.875 L 156.660156 8.601562 L 156.519531 8.46875 L 153.722656 8.46875 C 154.683594 9.753906 155.371094 11.0625 155.890625 12.582031 Z M 158.226562 13.070312 L 156.035156 13.046875 C 156.5625 14.761719 156.820312 16.386719 156.851562 18.179688 L 160.972656 18.179688 C 160.925781 16.359375 160.558594 14.710938 159.820312 13.046875 Z M 154.964844 28.375 L 156.558594 28.371094 L 156.847656 28.105469 L 156.992188 27.964844 C 157.863281 27.097656 158.554688 26.203125 159.179688 25.140625 C 159.355469 24.84375 159.503906 24.570312 159.652344 24.261719 L 155.929688 24.261719 C 155.429688 25.785156 154.738281 27.097656 153.765625 28.371094 Z M 154.683594 8.058594 L 156.007812 8.058594 C 155.402344 7.554688 154.8125 7.144531 154.128906 6.761719 C 153.152344 6.140625 152.183594 5.703125 151.070312 5.382812 C 150.480469 5.195312 149.941406 5.046875 149.34375 4.898438 L 149.28125 4.984375 L 151.316406 6.0625 C 151.601562 6.195312 151.84375 6.347656 152.089844 6.535156 C 152.359375 6.742188 152.59375 6.953125 152.824219 7.203125 C 153.078125 7.480469 153.289062 7.746094 153.503906 8.058594 Z M 153.558594 23.8125 L 155.8125 23.765625 C 156.316406 22.0625 156.5625 20.449219 156.589844 18.675781 L 152.054688 18.679688 C 152.046875 20.449219 151.921875 22.058594 151.660156 23.8125 Z M 153.789062 24.246094 L 151.585938 24.277344 C 151.371094 25.726562 151.035156 27.019531 150.519531 28.390625 L 151.890625 28.390625 L 153.507812 28.332031 C 154.480469 27.070312 155.164062 25.765625 155.652344 24.246094 Z M 152.410156 8.574219 L 150.539062 8.554688 C 150.789062 9.214844 150.980469 9.828125 151.152344 10.511719 C 151.339844 11.246094 151.480469 11.917969 151.605469 12.664062 L 155.65625 12.613281 C 155.261719 11.550781 154.8125 10.613281 154.226562 9.640625 C 154 9.238281 153.769531 8.890625 153.496094 8.523438 Z M 149.984375 31.796875 C 151.496094 31.46875 152.828125 30.945312 154.160156 30.152344 C 154.894531 29.734375 155.527344 29.296875 156.175781 28.753906 L 153.535156 28.855469 C 153.117188 29.429688 152.671875 29.902344 152.113281 30.347656 C 151.867188 30.542969 151.628906 30.699219 151.351562 30.847656 L 149.234375 31.964844 C 149.496094 31.929688 149.730469 31.875 149.984375 31.796875 Z M 149.132812 5.8125 C 149.621094 6.550781 150.007812 7.265625 150.355469 8.085938 L 153.242188 8.042969 C 152.914062 7.632812 152.578125 7.289062 152.183594 6.949219 C 151.824219 6.636719 151.46875 6.390625 151.050781 6.164062 L 149.171875 5.144531 L 148.871094 5.515625 C 148.972656 5.605469 149.054688 5.699219 149.132812 5.8125 Z M 147.960938 32.0625 C 148.164062 32.105469 148.363281 32.101562 148.566406 32.046875 C 148.671875 32.015625 148.765625 31.980469 148.863281 31.929688 L 151.109375 30.695312 C 151.667969 30.398438 152.136719 30.058594 152.585938 29.617188 C 152.839844 29.375 153.054688 29.140625 153.273438 28.871094 L 150.332031 28.859375 C 150.132812 29.339844 149.925781 29.761719 149.660156 30.210938 C 149.429688 30.613281 149.183594 30.960938 148.882812 31.320312 C 148.703125 31.535156 148.511719 31.710938 148.28125 31.878906 C 148.175781 31.949219 148.074219 32.007812 147.960938 32.0625 Z M 147.683594 32.027344 C 147.910156 31.902344 148.109375 31.769531 148.308594 31.597656 C 148.523438 31.414062 148.710938 31.226562 148.894531 31.007812 C 149.429688 30.34375 149.820312 29.65625 150.117188 28.855469 L 147.660156 28.855469 Z M 147.660156 8.082031 L 150.136719 8.082031 C 149.945312 7.566406 149.734375 7.109375 149.46875 6.625 C 149.332031 6.363281 149.1875 6.136719 149.015625 5.902344 C 148.941406 5.804688 148.867188 5.726562 148.777344 5.652344 L 147.65625 7.078125 Z M 146.640625 31.734375 C 146.371094 31.480469 146.148438 31.230469 145.925781 30.9375 C 145.679688 30.613281 145.476562 30.304688 145.277344 29.949219 C 145.058594 29.5625 144.882812 29.199219 144.707031 28.785156 L 141.816406 28.832031 C 142.148438 29.238281 142.480469 29.582031 142.878906 29.925781 C 143.238281 30.234375 143.59375 30.480469 144.011719 30.710938 L 146.480469 32.046875 C 146.691406 32.117188 146.90625 32.132812 147.128906 32.089844 C 146.945312 31.988281 146.789062 31.878906 146.640625 31.734375 Z M 147.398438 28.789062 L 144.925781 28.789062 C 145.117188 29.308594 145.328125 29.765625 145.59375 30.246094 C 145.878906 30.707031 146.1875 31.09375 146.574219 31.472656 C 146.746094 31.636719 146.917969 31.773438 147.113281 31.910156 C 147.203125 31.972656 147.292969 32.019531 147.394531 32.0625 Z M 142.648438 28.296875 L 144.519531 28.316406 C 144.269531 27.65625 144.078125 27.042969 143.90625 26.359375 C 143.722656 25.625 143.582031 24.953125 143.453125 24.207031 L 139.402344 24.257812 C 139.800781 25.324219 140.25 26.257812 140.835938 27.234375 C 141.0625 27.632812 141.289062 27.980469 141.5625 28.351562 Z M 140.378906 28.816406 L 139.054688 28.816406 C 139.65625 29.320312 140.246094 29.726562 140.933594 30.113281 C 141.910156 30.730469 142.878906 31.167969 143.992188 31.488281 C 144.722656 31.71875 145.394531 31.90625 146.136719 32.089844 L 143.742188 30.808594 C 143.460938 30.675781 143.21875 30.527344 142.972656 30.335938 C 142.699219 30.128906 142.46875 29.917969 142.238281 29.667969 C 141.984375 29.390625 141.769531 29.125 141.558594 28.816406 Z M 140.832031 18.609375 L 138.457031 18.660156 C 138.507812 20.445312 138.769531 22.0625 139.28125 23.769531 L 143.378906 23.738281 C 143.121094 21.984375 142.996094 20.378906 142.984375 18.609375 Z M 136.835938 23.804688 L 139.023438 23.824219 C 138.53125 22.210938 138.273438 20.6875 138.214844 19 L 134.945312 23.128906 C 135.042969 23.367188 135.136719 23.585938 135.238281 23.824219 Z M 137.554688 24.292969 L 135.449219 24.292969 C 135.601562 24.601562 135.75 24.875 135.925781 25.171875 C 136.539062 26.238281 137.230469 27.132812 138.109375 27.996094 L 138.398438 28.273438 L 138.546875 28.402344 L 141.339844 28.402344 C 140.378906 27.117188 139.6875 25.808594 139.171875 24.289062 Z M 133.796875 23.761719 L 149.84375 3.558594 L 152.375 4.703125 C 153.265625 4.992188 154.050781 5.332031 154.867188 5.785156 C 157.148438 7.105469 158.910156 8.859375 160.238281 11.136719 C 160.558594 11.675781 160.8125 12.191406 161.054688 12.769531 C 161.3125 13.40625 161.519531 14 161.703125 14.664062 C 163.4375 21.019531 160.597656 27.851562 154.867188 31.105469 C 154.070312 31.546875 153.3125 31.894531 152.457031 32.207031 C 149.210938 33.402344 145.851562 33.402344 142.605469 32.207031 C 141.746094 31.894531 140.992188 31.546875 140.191406 31.105469 C 137.910156 29.785156 136.148438 28.03125 134.820312 25.753906 C 134.429688 25.089844 134.109375 24.464844 133.796875 23.761719 "/>
<g clip-path="url(#clip3)" clip-rule="nonzero">
<path style=" stroke:none;fill-rule:evenodd;fill:rgb(17.144775%,63.546753%,27.272034%);fill-opacity:1;" d="M 134.101562 24.09375 L 150.144531 3.890625 L 152.464844 4.675781 C 153.355469 4.960938 154.140625 5.304688 154.960938 5.757812 C 157.238281 7.078125 159.003906 8.832031 160.328125 11.109375 C 160.648438 11.648438 160.90625 12.160156 161.144531 12.742188 C 161.40625 13.378906 161.609375 13.972656 161.796875 14.632812 C 163.527344 20.992188 160.6875 27.824219 154.960938 31.078125 C 154.160156 31.519531 153.402344 31.867188 152.546875 32.179688 C 149.304688 33.375 145.941406 33.375 142.695312 32.179688 C 141.839844 31.867188 141.082031 31.519531 140.285156 31.078125 C 138.003906 29.757812 136.242188 28.003906 134.914062 25.726562 C 134.597656 25.1875 134.339844 24.675781 134.101562 24.09375 Z M 153.691406 0 L 171.757812 0.0078125 L 158.214844 39.117188 C 158.0625 39.550781 157.644531 39.835938 157.1875 39.828125 L 121.292969 39.828125 L 151.972656 0.832031 C 152.390625 0.292969 153.011719 -0.0078125 153.691406 0 "/>
</g>
</g>
</svg>

<svg xmlns="http://www.w3.org/2000/svg" width="176pt" height="53.107" viewBox="0 0 176 39.83"><defs><clipPath id="a"><path d="M0 25h115v14.828H0Zm0 0"/></clipPath><clipPath id="b"><path d="M159 0h17v39.828h-17Zm0 0"/></clipPath><clipPath id="c"><path d="M121 0h51v39.828h-51Zm0 0"/></clipPath></defs><g clip-path="url(#a)"><path d="M101.938 39.727h-6.083V25.102h11.82c1.352-.004 2.587.253 3.74.777 1.292.57 2.132 1.512 2.339 2.621.27 1.281-.262 2.543-1.465 3.48-.555.438-1.215.727-2 .868 1.371.242 2.426 1.039 2.734 2.062.11.367.176.703.215 1.078.11 1.02.215 1.95.348 2.969q.053.44.453.77h-6.098a1.9 1.9 0 0 1-.472-1.008 54 54 0 0 1-.348-2.723c-.039-.379-.254-.71-.625-.973-.367-.261-.832-.398-1.34-.406l-3.219-.004Zm.035-8.47h3.816c.531 0 1.016-.16 1.371-.452.36-.293.531-.668.488-1.063-.043-.355-.246-.668-.597-.91a2.26 2.26 0 0 0-1.27-.363h-3.808Zm-15.578 8.47V25.102h6.222v14.625Zm-24.766 0 6.648-14.625h7.614l6.445 14.625H75.82l-.785-2.07h-6.094l-.804 2.07Zm8.555-5.336h3.664l-1.805-4.786Zm-34.047 5.336 6.648-14.625h7.613l6.442 14.625h-6.512l-.785-2.07h-6.094l-.808 2.07Zm8.554-5.336h3.664l-1.804-4.786Zm-19.597 5.336-6-14.625h6.39l3.2 8.824 3.367-8.824h6.433l-6.242 14.625ZM0 39.727V25.102h16.738v3.808H6.105v1.453H16.77v3.684H6.117v1.851h10.617v3.829z" style="stroke:none;fill-rule:evenodd;fill:#2ca246;fill-opacity:1"/></g><g clip-path="url(#b)"><path d="M173.375.082H176l-13.836 39.746h-2.848A622 622 0 0 1 173.375.082" style="stroke:none;fill-rule:evenodd;fill:#ec5027;fill-opacity:1"/></g><path d="m147.691 10.625 1.125 4.895 2.442-1.489.172.125-.957 2.625 4.007.828-.02.516-3.972.871 1.364 2.996-.391.262-2.684-1.356-1.086 5.594h-.238l-1.117-5.594-2.559 1.415-.304-.32 1.343-2.977-4.363-.891-.07-.492 4.402-.809-1.027-2.566.168-.153 2.535 1.415.992-4.895z" style="stroke:none;fill-rule:evenodd;fill:#2ca246;fill-opacity:1"/><path d="m152.043 17.004-.371-.078a34 34 0 0 0-.383-3.785h-3.043l-.113-.496 3.133.015-.164-.992c-.18-.996-.403-1.89-.707-2.852l-.075-.222-.015-.043h-2.645v2.05l-.02-.09h-.234l-.008.048V8.48l-.878.008-2.56 3.211c-.054.309-.097.586-.144.895l3.164.004-.105.511-3.14.004a36 36 0 0 0-.325 3.84l-.379.07c.055-1.367.168-2.609.367-3.96h-.414l-4.086 5.148 2.372-.016 2.09.426c.003 1.055.05 2.012.152 3.063l-.09.199.125.133c.062.59.133 1.129.226 1.714h3.102l.098.497-3.176-.016.164.992c.18.996.398 1.89.71 2.856l.071.218.016.043h2.64v-1.972l.008.03h.235l.02-.1v2.113h2.624c.45-1.383.75-2.676.957-4.114l-3.191-.004.101-.511h3.172c.082-.582.145-1.11.196-1.696l.28-.183-.226-.5a34 34 0 0 0 .09-2.676l-.43.004 2.055-.45h.941l2.375-.046a19 19 0 0 0-.828-5.113l-4.093.03c.195 1.325.308 2.536.359 3.872m5.687 6.789h2.133c.282-.648.496-1.258.688-1.945.289-1.07.433-2.075.465-3.188h-4.121a17.7 17.7 0 0 1-.817 5.133Zm-.222-11.215 2.101.004a11 11 0 0 0-.472-.883 13 13 0 0 0-2.188-2.824l-.289-.273-.14-.133h-2.797a14.5 14.5 0 0 1 2.168 4.113Zm.719.492-2.192-.023c.528 1.715.785 3.34.817 5.133h4.12a13.15 13.15 0 0 0-1.152-5.133Zm-3.262 15.305 1.594-.004.289-.266.144-.14a13.6 13.6 0 0 0 2.188-2.824c.175-.297.324-.57.472-.88h-3.722a13.6 13.6 0 0 1-2.164 4.11Zm-.281-20.316h1.324a12 12 0 0 0-1.88-1.297 11.4 11.4 0 0 0-3.058-1.38 27 27 0 0 0-1.726-.484l-.063.086 2.035 1.079c.286.132.528.285.774.472.27.207.504.418.734.668.254.277.465.543.68.856Zm-1.125 15.754 2.254-.047c.503-1.703.75-3.317.777-5.09l-4.535.004a35 35 0 0 1-.395 5.133Zm.23.433-2.203.031a19.4 19.4 0 0 1-1.066 4.114h1.37l1.618-.059a13 13 0 0 0 2.144-4.086ZM152.41 8.574l-1.87-.02c.25.66.44 1.274.612 1.958.188.734.328 1.406.453 2.152l4.051-.05c-.394-1.063-.844-2-1.43-2.973-.226-.403-.456-.75-.73-1.118Zm-2.426 23.223a13.6 13.6 0 0 0 4.176-1.645 13.3 13.3 0 0 0 2.016-1.398l-2.64.101a7.5 7.5 0 0 1-1.423 1.493 5 5 0 0 1-.761.5l-2.118 1.117a4.5 4.5 0 0 0 .75-.168m-.851-25.984c.488.738.875 1.453 1.222 2.273l2.887-.043a8 8 0 0 0-1.058-1.094 6 6 0 0 0-1.133-.785l-1.88-1.02-.3.372c.102.09.184.183.262.297m-1.172 26.25q.303.065.605-.016c.106-.031.2-.067.297-.117l2.246-1.235a6.2 6.2 0 0 0 1.477-1.078c.254-.242.469-.476.687-.746l-2.941-.012c-.2.48-.406.903-.672 1.352-.23.402-.476.75-.777 1.11-.18.214-.371.39-.602.558-.105.07-.207.129-.32.183m-.277-.036c.226-.125.425-.257.625-.43.214-.183.402-.37.586-.59a7.5 7.5 0 0 0 1.222-2.152h-2.457Zm-.024-23.945h2.477a11 11 0 0 0-.668-1.457 5.5 5.5 0 0 0-.453-.723 1.5 1.5 0 0 0-.239-.25l-1.12 1.426Zm-1.02 23.652a6.3 6.3 0 0 1-.714-.797 8 8 0 0 1-.649-.988c-.218-.387-.394-.75-.57-1.164l-2.89.047c.331.406.663.75 1.062 1.094.36.308.715.554 1.133.785l2.468 1.336q.316.106.649.043a2.2 2.2 0 0 1-.488-.356m.758-2.945h-2.472c.191.52.402.977.668 1.457.285.461.594.848.98 1.227.172.164.344.3.54.437.09.063.179.11.28.152Zm-4.75-.492 1.872.02c-.25-.66-.442-1.274-.614-1.958a29 29 0 0 1-.453-2.152l-4.05.05c.398 1.067.847 2 1.433 2.977.226.399.453.746.726 1.118Zm-2.27.52h-1.323c.601.503 1.191.91 1.879 1.296a11.5 11.5 0 0 0 3.058 1.375c.73.23 1.403.418 2.145.602l-2.395-1.281a4 4 0 0 1-.77-.473 5.4 5.4 0 0 1-.734-.668 7.5 7.5 0 0 1-.68-.852Zm.454-10.208-2.375.051c.05 1.785.313 3.403.824 5.11l4.098-.032a36 36 0 0 1-.395-5.129Zm-3.996 5.196 2.187.02a18.2 18.2 0 0 1-.808-4.825l-3.27 4.129c.098.238.192.457.293.695Zm.719.488h-2.106c.153.309.301.582.477.879a12.8 12.8 0 0 0 2.183 2.824l.29.277.148.13h2.793a14.4 14.4 0 0 1-2.168-4.114Zm-3.758-.531 16.047-20.203 2.531 1.144a13.7 13.7 0 0 1 2.492 1.082c2.281 1.32 4.043 3.074 5.371 5.352.32.539.575 1.054.817 1.633.257.636.465 1.23.648 1.894 1.734 6.356-1.105 13.188-6.836 16.441-.797.442-1.554.79-2.41 1.102-3.246 1.195-6.605 1.195-9.852 0-.859-.312-1.613-.66-2.414-1.102-2.28-1.32-4.043-3.074-5.37-5.351a19 19 0 0 1-1.024-1.992" style="stroke:none;fill-rule:evenodd;fill:#ec5027;fill-opacity:1"/><g clip-path="url(#c)"><path d="M134.102 24.094 150.145 3.89l2.32.785c.89.285 1.676.629 2.496 1.082 2.277 1.32 4.043 3.074 5.367 5.351.32.54.578 1.051.817 1.633.261.637.464 1.23.652 1.89 1.73 6.36-1.11 13.192-6.836 16.446-.8.442-1.559.79-2.414 1.102-3.242 1.195-6.606 1.195-9.852 0a16.6 16.6 0 0 1-2.41-1.102c-2.281-1.32-4.043-3.074-5.37-5.351-.317-.54-.575-1.051-.813-1.633M153.692 0l18.066.008-13.543 39.11a1.07 1.07 0 0 1-1.028.71h-35.894L151.973.832c.418-.539 1.039-.84 1.718-.832" style="stroke:none;fill-rule:evenodd;fill:#2ca246;fill-opacity:1"/></g></svg>
